sourses/img/email.svg

<svg width="24" height="24" fill="none" xmlns="http://www.w3.org/2000/svg"><path fill-rule="evenodd" clip-rule="evenodd" d="M19 18H5c-.551 0-1-.448-1-1V7.25l7.4 5.55a.995.995 0 001.2 0L20 7.25V17c0 .552-.449 1-1 1zm-.667-12L12 10.75 5.667 6h12.666zM19 4H5C3.346 4 2 5.346 2 7v10c0 1.654 1.346 3 3 3h14c1.654 0 3-1.346 3-3V7c0-1.654-1.346-3-3-3z" fill="#D7A950"/></svg>

<svg width="24" height="24" viewBox="0 0 24 24" fill="none" xmlns="http://www.w3.org/2000/svg">
<g id="Icon/Outline/email">
<path id="Mask" fill-rule="evenodd" clip-rule="evenodd" d="M19 18H5C4.449 18 4 17.552 4 17V7.25L11.4 12.8C11.578 12.934 11.789 13 12 13C12.211 13 12.422 12.934 12.6 12.8L20 7.25V17C20 17.552 19.551 18 19 18ZM18.333 6L12 10.75L5.667 6H18.333ZM19 4H5C3.346 4 2 5.346 2 7V17C2 18.654 3.346 20 5 20H19C20.654 20 22 18.654 22 17V7C22 5.346 20.654 4 19 4Z" fill="#D7A950"/>
</g>
</svg>
